X: 134
T:Tam Lin
T:The Ho
T:Ceilidh Funk
R:Reel
N:Nathan Curry
M:4/4
L:1/8
Q:1/2=112
K:Am
AB|AE~E2 AcBA|~F2AF cFAF| ~G2BG dGBG| cBAG (3EFG AB|
AE~E2 AcBA|~F2AF cFAF| ~G2 BG dGBG| cBAG A2:|
eg|ae ~e2 ceAg| ae ~e2 ceAf|gB~B2 gBaB|gfga gfeg|
ae ~e2 ceAg| ae ~e2 ceAE| ~F2FE FA{d}cA|BAGB A2:|
